X: 40665
T: Top Of The Maol, The
R: polka
M: 2/4
K: Adorian
A2 AB/d/|ed B/d/B/A/|G>A GA|Bd (3B/A/G/|
A2 AB/d/|ed Bd|e/f/g/e/ dB|A2 A2:|
ea a2|ba g2|e>f ga|ge ed|
ea a2|ba g2|e/f/g/e/ dB|A2 A2:|

